X: 1
T: Lady In The Bottle, The
M: 6/8
L: 1/8
R: jig
K: Gmaj
|:GGG ded|BAA BGG|GBd edB|edB A2d|
GGG ded|BAA BGG|GBd edd|e2f g2g:|
|:edg dBg|cAg BGG|GBB edd|edB A2g|
edg dBg|cAg BGG|GBB Bdd|e2f g2g:|
